src/images/svg/arrow-left.svg

<svg width="8" height="15" viewBox="0 0 8 15" fill="" xmlns="http://www.w3.org/2000/svg">
    <path
        d="M7.64471 0.394637C7.75733 0.518919 7.84669 0.666543 7.90765 0.829057C7.96862 0.991571 8 1.16579 8 1.34173C8 1.51767 7.96862 1.69188 7.90765 1.8544C7.84669 2.01691 7.75733 2.16454 7.64471 2.28882L2.93089 7.50117L7.64471 12.7135C7.87187 12.9647 7.99949 13.3054 7.99949 13.6606C7.99949 14.0158 7.87187 14.3565 7.64471 14.6077C7.41755 14.8589 7.10945 15 6.7882 15C6.46695 15 6.15886 14.8589 5.9317 14.6077L0.35529 8.44154C0.242664 8.31726 0.153311 8.16964 0.0923452 8.00712C0.0313797 7.84461 0 7.67039 0 7.49445C0 7.31851 0.0313797 7.1443 0.0923452 6.98178C0.153311 6.81927 0.242664 6.67165 0.35529 6.54736L5.9317 0.381203C6.39336 -0.129285 7.1709 -0.129285 7.64471 0.394637Z"
        fill-opacity="0.6" />
</svg>

<svg xmlns="http://www.w3.org/2000/svg" width="8" height="15">
    <path
        d="M7.645.395c.112.124.202.272.263.434a1.462 1.462 0 0 1 0 1.025c-.061.163-.15.31-.263.435L2.93 7.5l4.714 5.212c.227.252.354.592.354.948 0 .355-.127.696-.354.947a1.156 1.156 0 0 1-.857.392c-.321 0-.63-.141-.856-.392L.355 8.442a1.355 1.355 0 0 1-.263-.435 1.462 1.462 0 0 1 0-1.025c.061-.163.15-.31.263-.435L5.932.381c.461-.51 1.239-.51 1.713.014Z" />
</svg>
